packages/katcn/src/icons/svg/text-solid.svg

<svg width="24" height="25" viewBox="0 0 24 25" fill="none" xmlns="http://www.w3.org/2000/svg">
<path d="M19.4 2.29602H4.6C3.2 2.29602 2 3.49602 2 4.89602V7.29602C2 7.89602 2.4 8.29602 3 8.29602C3.6 8.29602 4 7.89602 4 7.29602V4.89602C4 4.59602 4.3 4.29602 4.6 4.29602H9V20.296H7C6.4 20.296 6 20.696 6 21.296C6 21.896 6.4 22.296 7 22.296H16.8C17.4 22.296 17.8 21.896 17.8 21.296C17.8 20.696 17.4 20.296 16.8 20.296H14.8V4.29602H19.2C19.7 4.29602 20 4.59602 20 4.89602V7.29602C20 7.89602 20.4 8.29602 21 8.29602C21.6 8.29602 22 7.89602 22 7.29602V4.89602C22 3.49602 20.8 2.29602 19.4 2.29602Z" fill="black"/>
</svg>

<svg xmlns="http://www.w3.org/2000/svg" fill="none" viewBox="0 0 24 25"><path fill="#000" d="M19.4 2.296H4.6c-1.4 0-2.6 1.2-2.6 2.6v2.4c0 .6.4 1 1 1s1-.4 1-1v-2.4c0-.3.3-.6.6-.6H9v16H7c-.6 0-1 .4-1 1s.4 1 1 1h9.8c.6 0 1-.4 1-1s-.4-1-1-1h-2v-16h4.4c.5 0 .8.3.8.6v2.4c0 .6.4 1 1 1s1-.4 1-1v-2.4c0-1.4-1.2-2.6-2.6-2.6"/></svg>
